logo/atomicojs.svg

<?xml version="1.0" encoding="UTF-8"?>
<svg width="512px" height="127px" viewBox="0 0 512 127" version="1.1" xmlns="http://www.w3.org/2000/svg" preserveAspectRatio="xMidYMid">
    <title>Atomico</title>
    <g>
        <path d="M112.319771,117.811537 C111.521561,118.607989 110.670344,119.349486 109.771959,120.030941 L86.9211088,120.036237 C88.3804063,119.074849 89.8185161,118.034007 91.1904147,116.942845 L113.130197,116.942845 C112.862704,117.24212 112.611101,117.520207 112.319771,117.811537 Z M115.357546,114.127539 L94.4877384,114.127539 C95.0386166,113.619036 95.6000885,113.078752 96.1430214,112.535819 C96.6329851,112.045855 97.1308942,111.547946 97.591725,111.034147 L117.124064,111.026201 C116.607488,112.098532 116.014471,113.132329 115.349601,114.119594 L115.357546,114.127539 Z M105.02858,122.867434 C101.816073,124.324127 98.3275806,125.072048 94.8002558,125.060352 C91.2761616,125.068396 87.791523,124.31872 84.582525,122.862137 L105.01269,122.862137 L105.02858,122.867434 Z M118.29468,108.208247 L100.073325,108.208247 C100.894346,107.207132 101.686233,106.16629 102.438394,105.112206 L119.09981,105.109558 C118.894387,106.158212 118.62102,107.192406 118.281438,108.205599 L118.29468,108.208247 Z M119.507672,102.291604 L104.31085,102.286307 C104.941181,101.279895 105.552974,100.239053 106.122391,99.1929142 L119.54475,99.1929142 C119.563289,99.5504553 119.568586,99.9212387 119.576531,100.284077 C119.57918,100.948838 119.547399,101.621545 119.497078,102.28101 L119.507672,102.291604 Z M119.264014,96.3696635 L119.279905,96.3749604 L107.573744,96.3749604 C108.053113,95.3658999 108.511296,94.325058 108.9324,93.2789191 L118.562174,93.2789191 C118.861993,94.2930938 119.096422,95.3254632 119.264014,96.3696635 Z M117.54252,90.45302 L109.973242,90.45302 C110.325486,89.4386626 110.648597,88.4004691 110.945224,87.3622757 L115.929612,87.3622757 C116.539154,88.3533734 117.078124,89.3861776 117.54252,90.45302 Z M113.906194,84.5443219 L113.916788,84.539025 L111.681494,84.5496188 L111.952421,83.2193108 C111.99666,82.9985083 112.039918,82.7786867 112.08141,82.5606308 C112.724909,83.1885581 113.334055,83.8507511 113.906194,84.5443219 Z" fill="#000000"></path>
        <path d="M94.0058799,110.033191 C91.3691553,112.669916 88.4724922,115.033197 85.3611701,117.08851 C79.3606364,121.048982 72.6390456,123.789275 65.5798764,125.153048 C55.0938958,127.187464 44.2429708,126.13779 34.341376,122.131164 C30.9937136,120.76652 27.789354,119.073851 24.7751645,117.077916 C18.5361931,112.951443 13.1936642,107.608914 9.06719116,101.369942 C5.11085731,95.3729174 2.37331878,88.655959 1.01059783,81.6018909 C-1.02350423,71.114804 0.0270979311,60.2628748 4.0351309,50.360742 C5.39615204,47.0117026 7.08526807,43.8055758 9.07778497,40.7892337 C13.6010897,33.9499555 19.5822333,28.1967338 26.5920031,23.9424256 C33.9310331,19.5108179 42.2059248,16.8595509 50.7538378,16.2009982 C54.9682736,15.8690625 59.2068442,16.0201227 63.3869575,16.6512351 C57.287974,29.8807684 60.0788549,45.5094238 70.3797808,55.8103498 C80.6807068,66.1112757 96.3093622,68.9021567 109.538895,62.8031731 C110.812379,71.1924121 110.139087,79.7621618 107.571095,87.849591 C104.970209,95.9856398 100.505314,103.398015 94.5364393,109.498347 L94.0058799,110.033191 Z" fill="#000000"></path>
        <path d="M105.672154,60.0381884 L123.761087,41.949256 C120.606647,50.2953404 114.018239,56.8837483 105.672154,60.0381884 Z M98.9795143,61.7305497 C97.0809499,61.9910269 95.1624341,62.0761366 93.2482625,61.9848012 L125.710348,29.5227156 C125.801684,31.4368872 125.716574,33.355403 125.456097,35.2539674 L98.9795143,61.7305497 Z M88.7803227,61.4418684 C87.3169472,61.1575997 85.8759815,60.7681495 84.4686416,60.2765492 L123.999448,20.7457431 C124.491172,22.1530445 124.880625,23.5940193 125.164767,25.0574242 L88.7803227,61.4418684 Z M80.9541447,58.801361 C79.7568918,58.206438 78.5997109,57.5340699 77.4899685,56.7885369 L120.508787,13.7697185 C121.253432,14.88044 121.924913,16.0385013 122.518963,17.2365432 L80.9541447,58.801361 Z M74.6428818,54.6353448 C74.0143156,54.0985917 73.4025231,53.5327056 72.807504,52.9376865 C72.4808615,52.611044 72.16393,52.2799874 71.8567095,51.9445168 L115.667415,8.13381102 C116.004652,8.44279717 116.335708,8.75972869 116.660585,9.08460556 C117.255604,9.67962462 117.82149,10.2914172 118.358243,10.9199833 L74.6428818,54.6353448 Z M69.6002277,49.2007197 C68.8249558,48.125225 68.1198855,47.0008282 67.4894108,45.8345362 L109.557435,3.7665124 C110.721172,4.39993963 111.842906,5.10765842 112.915673,5.88527461 L69.6002277,49.2007197 Z M65.8950423,42.4286259 C65.358879,41.0744363 64.9190244,39.684071 64.5787612,38.2679066 L101.985508,0.861159708 C103.401646,1.20151893 104.792004,1.64137139 106.146227,2.17744073 L65.8950423,42.4286259 Z M63.8663274,33.9800616 C63.6941119,32.173203 63.679933,30.3547608 63.8239522,28.5454365 L92.2709834,0.0984053097 C94.080305,-0.0456901675 95.8987539,-0.031511229 97.7056085,0.140780554 L63.8663274,33.9800616 Z M64.9257086,22.4434013 C67.8833857,12.1823759 75.9052744,4.16048727 86.1662998,1.20281012 L64.9257086,22.4434013 Z" fill="#000000"></path>
        <path d="M195.183617,96.6440256 L203.599706,96.6440256 L181.591278,35.8811388 L172.392385,35.8811388 L150.294065,96.6440256 L158.710154,96.6440256 L163.61673,83.0479411 L190.273296,83.0479411 L195.183617,96.6440256 Z M187.9923,76.5495371 L165.893981,76.5495371 L176.939395,45.6867998 L187.9923,76.5495371 Z M214.997195,83.4749256 C214.997195,93.119531 219.825116,96.6252982 228.323605,96.6252982 L235.514922,96.6252982 L235.514922,89.8834381 L229.642013,89.8834381 C224.735437,89.8834381 222.978808,88.2167005 222.978808,83.4824165 L222.978808,55.1628587 L235.518668,55.1628587 L235.518668,48.5857996 L222.978808,48.5857996 L222.978808,36.4879062 L215.00094,36.4879062 L215.00094,48.5857996 L208.772211,48.5857996 L208.772211,55.1628587 L214.997195,55.1628587 L214.997195,83.4749256 Z M290.749484,72.5306394 C291.10989,65.94679 288.68229,59.5153306 284.061353,54.8117245 C279.440417,50.1081184 273.05301,47.566869 266.463806,47.8104857 C259.878597,47.5808245 253.499499,50.126508 248.881713,54.8269078 C244.263926,59.5273075 241.831745,65.9505382 242.178127,72.5306394 C242.178127,87.7859706 252.523137,97.430576 266.115476,97.430576 C272.764223,97.6634458 279.2075,95.1057582 283.886434,90.3763139 C288.565368,85.6468697 291.053727,79.1765031 290.749484,72.5306394 Z M250.328287,72.5306394 C250.328287,60.432746 257.957826,54.7321287 266.373914,54.7321287 C274.613965,54.7321287 282.595579,60.432746 282.595579,72.5306394 C282.595579,84.7184242 274.441673,90.415296 266.115476,90.415296 C257.789279,90.415296 250.332033,84.7146787 250.332033,72.5306394 L250.328287,72.5306394 Z M370.625544,96.6440256 L378.517266,96.6440256 L378.517266,68.3094859 C378.517266,54.5448548 370.011286,47.7093578 359.040781,47.7093578 C351.71553,47.4394002 344.974829,51.6908154 342.06253,58.4176789 C338.996924,51.5130818 331.961452,47.2425057 324.42133,47.7093578 C318.348317,47.4774482 312.595682,50.436149 309.252144,55.5111881 L309.252144,48.5857996 L301.274277,48.5857996 L301.274277,96.6327892 L309.252144,96.6327892 L309.252144,70.1822248 C309.252144,59.837215 314.776724,54.6647101 322.848229,54.6647101 C330.739951,54.6647101 335.998602,59.6611776 335.998602,69.4818204 L335.998602,96.662753 L343.890323,96.662753 L343.890323,70.1822248 C343.890323,59.837215 349.414903,54.6647101 357.486408,54.6647101 C365.37813,54.6647101 370.636781,59.6611776 370.636781,69.4818204 L370.625544,96.6440256 Z M391.581493,96.6440256 L399.55936,96.6440256 L399.55936,48.597036 L391.581493,48.597036 L391.581493,96.6440256 Z M395.701518,40.7914603 C397.123378,40.7778637 398.480499,40.1950842 399.469469,39.1734138 C400.459246,38.1527933 400.998846,36.7781629 400.96766,35.3567719 C400.998846,33.935381 400.459246,32.5607506 399.469469,31.54013 C398.480499,30.5184596 397.123378,29.9356801 395.701518,29.9220836 C394.253099,29.898864 392.857124,30.4637406 391.83244,31.4876933 C390.808487,32.5123778 390.24361,33.9083527 390.26683,35.3567719 C390.24361,36.8051912 390.808487,38.2011661 391.83244,39.2258505 C392.858033,40.2507448 394.255552,40.8156991 395.705264,40.7914603 L395.701518,40.7914603 Z M410.170299,72.5306394 C410.170299,87.7859706 419.908541,97.430576 433.579535,97.430576 C443.931589,98.1251465 453.287087,91.2842445 455.764001,81.2089115 L447.171874,81.2089115 C445.538084,87.242932 439.809711,91.2344774 433.583281,90.6774794 C424.815117,90.6774794 418.32795,84.4524953 418.32795,72.5268939 C418.32795,60.7773299 424.815117,54.5486003 433.583281,54.5486003 C439.785483,54.0815214 445.462119,58.0370165 447.171874,64.0171683 L455.764001,64.0171683 C453.306967,53.934342 445.505137,47.7955038 433.579535,47.7955038 C419.90105,47.7955038 410.170299,57.4401092 410.170299,72.5156575 L410.170299,72.5306394 Z M511.964895,72.5306394 C512.325302,65.94679 509.897702,59.5153306 505.276765,54.8117245 C500.655828,50.1081184 494.268422,47.566869 487.679217,47.8104857 C481.094009,47.5808245 474.714911,50.126508 470.097124,54.8269078 C465.479338,59.5273075 463.047157,65.9505382 463.393539,72.5306394 C463.393539,87.7859706 473.742294,97.430576 487.330888,97.430576 C493.980601,97.6656639 500.425561,95.1088152 505.105589,90.3789849 C509.785616,85.6491546 512.274102,79.1774917 511.968641,72.5306394 L511.964895,72.5306394 Z M471.543699,72.5306394 C471.543699,60.432746 479.173237,54.7321287 487.589326,54.7321287 C495.829377,54.7321287 503.81099,60.432746 503.81099,72.5306394 C503.81099,84.7184242 495.657085,90.415296 487.330888,90.415296 C479.00469,90.415296 471.547444,84.7184242 471.547444,72.5306394 L471.543699,72.5306394 Z" fill="#000000"></path>
    </g>
</svg>

<svg viewBox="0 0 512 127" xmlns="http://www.w3.org/2000/svg"><g><path d="M112.31 117.81c-.8.79-1.65 1.53-2.55 2.21l-22.86 0c1.45-.97 2.89-2.01 4.26-3.1h21.93c-.27.29-.52.57-.82.86Zm3.03-3.69H94.47c.55-.51 1.11-1.05 1.65-1.6 .48-.49.98-.99 1.44-1.51l19.53-.01c-.52 1.07-1.11 2.1-1.78 3.09l0 0Zm-10.33 8.73c-3.22 1.45-6.71 2.2-10.23 2.19 -3.53 0-7.01-.75-10.22-2.2h20.43l.01 0Zm13.26-14.66h-18.23c.82-1.01 1.61-2.05 2.36-3.1l16.66-.01c-.21 1.04-.48 2.08-.82 3.09l.01 0Zm1.21-5.92l-15.2-.01c.63-1.01 1.24-2.05 1.81-3.1h13.42c.01.35.02.72.03 1.09 0 .66-.03 1.33-.08 1.99l.01.01Zm-.25-5.93l.01 0h-11.71c.47-1.01.93-2.05 1.35-3.1h9.62c.29 1.01.53 2.04.7 3.09Zm-1.73-5.92h-7.57c.35-1.02.67-2.06.97-3.1h4.98c.6.99 1.14 2.02 1.61 3.09Zm-3.64-5.91l.01-.01 -2.24.01 .27-1.34c.04-.23.08-.45.12-.66 .64.62 1.25 1.29 1.82 1.98Z"/><path d="M94 110.03c-2.64 2.63-5.54 5-8.65 7.05 -6.01 3.96-12.73 6.7-19.79 8.06 -10.49 2.03-21.34.98-31.24-3.03 -3.35-1.37-6.56-3.06-9.57-5.06 -6.24-4.13-11.59-9.47-15.71-15.71 -3.96-6-6.7-12.72-8.06-19.77C-1.06 71.08-.01 60.23 4 50.32c1.36-3.35 3.05-6.56 5.04-9.58 4.52-6.84 10.5-12.6 17.51-16.85 7.33-4.44 15.61-7.09 24.16-7.75 4.21-.34 8.45-.19 12.63.45 -6.1 13.22-3.31 28.85 6.99 39.15 10.3 10.3 25.92 13.09 39.15 6.99 1.27 8.38.6 16.95-1.97 25.04 -2.61 8.13-7.07 15.54-13.04 21.64l-.54.53Z"/><path d="M105.67 60.03l18.08-18.09c-3.16 8.34-9.75 14.93-18.09 18.08Zm-6.7 1.69c-1.9.26-3.82.34-5.74.25l32.46-32.47c.09 1.91 0 3.83-.26 5.73L98.95 61.7Zm-10.2-.29c-1.47-.29-2.91-.68-4.32-1.17l39.53-39.54c.49 1.4.88 2.84 1.16 4.31L88.75 61.41Zm-7.83-2.65c-1.2-.6-2.36-1.27-3.47-2.02l43.01-43.02c.74 1.11 1.41 2.26 2.01 3.46L80.92 58.76Zm-6.32-4.17c-.63-.54-1.25-1.11-1.84-1.7 -.33-.33-.65-.66-.96-1l43.81-43.82c.33.3.66.62.99.95 .59.59 1.16 1.2 1.69 1.83L74.59 54.58Zm-5.05-5.44c-.78-1.08-1.49-2.2-2.12-3.37l42.06-42.07c1.16.63 2.28 1.34 3.35 2.11L69.54 49.15Zm-3.71-6.78c-.54-1.36-.98-2.75-1.32-4.17L101.94.81c1.41.34 2.8.78 4.16 1.31L65.84 42.37Zm-2.03-8.45c-.18-1.81-.19-3.63-.05-5.44L92.22.05c1.8-.15 3.62-.13 5.43.04L63.81 33.92Zm1.05-11.54C67.83 12.13 75.85 4.11 86.12 1.15L64.87 22.39Z"/><path d="M195.18 96.64h8.41l-22.01-60.77h-9.2l-22.1 60.76h8.41l4.9-13.6h26.65l4.91 13.59Zm-7.2-20.1h-22.1l11.04-30.87 11.05 30.86Zm27 6.92c0 9.64 4.82 13.15 13.32 13.15h7.19v-6.75h-5.88c-4.91 0-6.67-1.67-6.67-6.41V55.13h12.53v-6.58h-12.54v-12.1h-7.98v12.09h-6.23v6.57h6.22v28.31Zm75.75-10.95c.36-6.59-2.07-13.02-6.69-17.72 -4.63-4.71-11.01-7.25-17.6-7.01 -6.59-.23-12.97 2.31-17.59 7.01 -4.62 4.7-7.05 11.12-6.71 17.7 0 15.25 10.34 24.89 23.93 24.89 6.64.23 13.09-2.33 17.77-7.06 4.67-4.73 7.16-11.2 6.86-17.85Zm-40.43 0c0-12.1 7.62-17.8 16.04-17.8 8.24 0 16.22 5.7 16.22 17.79 0 12.18-8.16 17.88-16.49 17.88 -8.33 0-15.79-5.71-15.79-17.89h-.01Zm120.29 24.11h7.89V68.28c0-13.77-8.51-20.61-19.48-20.61 -7.33-.27-14.07 3.98-16.98 10.7 -3.07-6.91-10.11-11.18-17.65-10.71 -6.08-.24-11.83 2.72-15.17 7.8v-6.93h-7.98v48.04h7.97V70.11c0-10.35 5.52-15.52 13.59-15.52 7.89 0 13.15 4.99 13.15 14.81v27.18h7.89V70.09c0-10.35 5.52-15.52 13.59-15.52 7.89 0 13.15 4.99 13.15 14.81l-.02 27.16Zm20.95 0h7.97V48.57h-7.98v48.04Zm4.12-55.86c1.42-.02 2.77-.6 3.76-1.62 .98-1.03 1.52-2.4 1.49-3.82 .03-1.43-.51-2.8-1.5-3.82 -.99-1.03-2.35-1.61-3.77-1.62 -1.45-.03-2.85.54-3.87 1.56 -1.03 1.02-1.59 2.42-1.57 3.86 -.03 1.44.54 2.84 1.56 3.86s2.42 1.58 3.87 1.56h-.01Zm14.46 31.73c0 15.25 9.73 24.89 23.4 24.89 10.35.69 19.7-6.15 22.18-16.23h-8.6c-1.64 6.03-7.37 10.02-13.59 9.46 -8.77 0-15.26-6.23-15.26-18.16 0-11.75 6.48-17.98 15.25-17.98 6.2-.47 11.87 3.48 13.58 9.46h8.59c-2.46-10.09-10.26-16.23-22.19-16.23 -13.68 0-23.41 9.64-23.41 24.72v.01Zm101.79 0c.36-6.59-2.07-13.02-6.69-17.72 -4.63-4.71-11.01-7.25-17.6-7.01 -6.59-.23-12.97 2.31-17.59 7.01 -4.62 4.7-7.05 11.12-6.71 17.7 0 15.25 10.34 24.89 23.93 24.89 6.64.23 13.09-2.33 17.77-7.06 4.68-4.73 7.16-11.21 6.86-17.85h-.01Zm-40.43 0c0-12.1 7.62-17.8 16.04-17.8 8.24 0 16.22 5.7 16.22 17.79 0 12.18-8.16 17.88-16.49 17.88 -8.33 0-15.79-5.7-15.79-17.89h-.01Z"/></g></svg>
